X:99
T: Genovefa
N: Q0104A
O: Mitteleuropa, Oesterreich, Burgenland, Illmitz
R: Ballade, Ehe, Treue, Verleumdung, Rettung
M: none
L: 1/8
K: F
C | FFFA2A | c2cA2
G | F2Fc2c | dc=Bc2
A | c2dccB | AAG3
G | AABcBz | AGF3

@@@ Tune index: 1392
